dist/images/services-icons/cardiology.svg

<svg width="48" height="48" viewBox="0 0 48 48" fill="none" xmlns="http://www.w3.org/2000/svg">
<circle cx="24" cy="24" r="23.5" fill="#FCFAF7" stroke="#BDA37E"/>
<path fill-rule="evenodd" clip-rule="evenodd" d="M15.5657 17.0774C14.5924 18.316 14.0026 20.0082 14.0026 21.775C14.0026 22.8001 14.1789 23.781 14.4893 24.7149H20.2794L22.5381 20.6994L23.9495 25.6392L25.6765 23.4186H30.0026V24.752H26.3287L23.3891 28.5314L22.1338 24.1378L21.0591 26.0482H11.3359V24.7149H13.0932C12.8228 23.7824 12.6693 22.8008 12.6693 21.775C12.6693 19.7248 13.3501 17.7389 14.5173 16.2536C15.6877 14.7641 17.3733 13.752 19.3567 13.752C21.6925 13.752 23.4687 15.0609 24.6693 16.9078C25.8698 15.061 27.646 13.752 29.9818 13.752C31.9654 13.752 33.6511 14.7643 34.8214 16.2538C35.9885 17.7392 36.6693 19.7251 36.6693 21.775C36.6693 26.1633 33.6401 29.8279 30.7743 32.3293C29.325 33.5943 27.8789 34.5956 26.7965 35.2803C26.2546 35.6231 25.8021 35.8876 25.4837 36.0672C25.3245 36.157 25.1986 36.2256 25.1117 36.2722C25.0683 36.2956 25.0345 36.3134 25.0112 36.3256L24.9842 36.3396L24.9767 36.3435L24.9745 36.3447L24.9737 36.345C24.9737 36.345 24.9733 36.3453 24.6693 35.752C24.3801 36.3526 24.3799 36.3526 24.3799 36.3526L24.3759 36.3506L24.3666 36.3461L24.3329 36.3296C24.304 36.3152 24.2621 36.2942 24.2082 36.2668C24.1005 36.2119 23.9448 36.1309 23.749 36.0247C23.3575 35.8123 22.8047 35.4986 22.1531 35.0898C20.8523 34.2738 19.146 33.0722 17.5414 31.5347C16.6855 30.7146 15.8541 29.7949 15.1277 28.7827C14.913 28.4836 14.9814 28.067 15.2806 27.8524C15.5797 27.6377 15.9962 27.7062 16.2109 28.0053C16.8805 28.9383 17.6547 29.7968 18.4638 30.572C19.9831 32.0276 21.6101 33.1752 22.8617 33.9603C23.4863 34.3521 24.0144 34.6518 24.3848 34.8527C24.4899 34.9098 24.5823 34.9588 24.6605 34.9997C24.7108 34.972 24.767 34.9406 24.8288 34.9058C25.1301 34.7358 25.5631 34.4828 26.0837 34.1535C27.1263 33.494 28.5135 32.5328 29.8975 31.3248C32.6984 28.8801 35.3359 25.5562 35.3359 21.775C35.3359 20.0085 34.7463 18.3162 33.773 17.0776C32.8029 15.843 31.4782 15.0853 29.9818 15.0853C27.9133 15.0853 26.3089 16.4325 25.2677 18.5532L24.6693 19.772L24.0709 18.5532C23.0296 16.4324 21.4252 15.0853 19.3567 15.0853C17.8605 15.0853 16.5357 15.8428 15.5657 17.0774ZM24.6693 35.752L24.3799 36.3526L24.6785 36.4963L24.9737 36.345L24.6693 35.752Z" fill="#BDA37E"/>
</svg>

<svg width="48" height="48" fill="none" xmlns="http://www.w3.org/2000/svg"><circle cx="24" cy="24" r="23.5" fill="#FCFAF7" stroke="#BDA37E"/><path fill-rule="evenodd" clip-rule="evenodd" d="M15.566 17.077c-.974 1.239-1.563 2.931-1.563 4.698a9.29 9.29 0 00.486 2.94h5.79l2.26-4.016 1.41 4.94 1.727-2.22h4.327v1.333h-3.674l-2.94 3.78-1.255-4.394-1.075 1.91h-9.723v-1.333h1.757a10.519 10.519 0 01-.424-2.94c0-2.05.681-4.036 1.848-5.521 1.17-1.49 2.856-2.502 4.84-2.502 2.335 0 4.112 1.309 5.312 3.156 1.2-1.847 2.977-3.156 5.313-3.156 1.983 0 3.67 1.012 4.84 2.502 1.166 1.485 1.847 3.471 1.847 5.521 0 4.388-3.029 8.053-5.895 10.554a32.782 32.782 0 01-5.662 3.943 9.186 9.186 0 01-.1.054l-.028.014-.007.003-.003.002-.305-.593-.29.6-.003-.001-.01-.005-.033-.016a17.348 17.348 0 01-.584-.305 29.506 29.506 0 01-1.596-.935c-1.3-.816-3.007-2.018-4.612-3.555a19.976 19.976 0 01-2.413-2.752.667.667 0 111.083-.778c.67.933 1.444 1.792 2.253 2.567 1.52 1.456 3.146 2.603 4.398 3.388A28.181 28.181 0 0024.66 35l.168-.094a31.448 31.448 0 005.069-3.581c2.8-2.445 5.438-5.769 5.438-9.55 0-1.766-.59-3.459-1.563-4.697-.97-1.235-2.295-1.993-3.791-1.993-2.069 0-3.673 1.348-4.714 3.468l-.599 1.219-.598-1.219c-1.041-2.12-2.646-3.468-4.714-3.468-1.497 0-2.821.758-3.791 1.992zm9.103 18.675l-.29.6.3.144.295-.151-.305-.593z" fill="#BDA37E"/></svg>
